neru-light-classic/22x22/panel/zeal-panel.svg

<svg xmlns="http://www.w3.org/2000/svg" width="22" height="22" version="1.1">
 <defs>
  <style id="current-color-scheme" type="text/css">
   .ColorScheme-Text { color:#1e333d; } .ColorScheme-Highlight { color:#3fb7ff; }
  </style>
 </defs>
 <path style="opacity:0.3;fill:currentColor" class="ColorScheme-Text" d="m 4.8854168,3.0000003 c -0.4905209,0 -0.8854167,0.3568 -0.8854167,0.8 l 0,14.4000007 C 4.0000001,18.6432 4.3948959,19 4.8854168,19 l 2.1145831,0 0,-15.9999997 z"/>
 <path style="fill:currentColor" class="ColorScheme-Text" d="M 6.9999999,3.0000002 6.9999999,19 17.125,19 C 17.60975,19 18,18.642418 18,18.199219 L 18,3.8007815 c 0,-0.4432 -0.39025,-0.8007813 -0.875,-0.8007813 l -6.134765,0 -3.9902351,0 z m 2.5,3 6.0000001,0 A 0.50005,0.50005 0 0 1 15.916016,6.777344 L 10.433594,15 15.5,15 a 0.50005,0.50005 0 1 1 0,1 l -6.0000001,0 a 0.50005,0.50005 0 0 1 -0.416015,-0.777344 l 5.4824211,-8.2226558 -5.0664061,0 a 0.50005,0.50005 0 1 1 0,-1 z"/>
</svg>

<svg xmlns="http://www.w3.org/2000/svg" width="22" height="22"><defs><style id="current-color-scheme" type="text/css">.ColorScheme-Text{color:#1e333d}</style></defs><path class="ColorScheme-Text" d="M4.885 3C4.395 3 4 3.357 4 3.8v14.4c0 .443.395.8.885.8H7V3z" opacity=".3" fill="currentColor"/><path class="ColorScheme-Text" d="M7 3v16h10.125c.485 0 .875-.358.875-.8V3.8c0-.442-.39-.8-.875-.8H7zm2.5 3h6a.5.5 0 0 1 .416.777L10.434 15H15.5a.5.5 0 1 1 0 1h-6a.5.5 0 0 1-.416-.777L14.566 7H9.5a.5.5 0 1 1 0-1z" fill="currentColor"/></svg>
